rospo-icon-theme-classic-common/16x16/apps/resolve.svg

<svg height="16" viewBox="0 0 16 16" width="16" xmlns="http://www.w3.org/2000/svg"><path d="m8.24464 16h-.47432c-.022-.008-.04408-.01-.06628-.01-.25324-.012-.50464-.0324-.75384-.06628-.46616-.06032-.92452-.16284-1.37068-.30536-.76572-.24504-1.4792-.59668-2.14044-1.05492-.61316-.42608-1.1556-.92836-1.628-1.50692-.55692-.6792-.99088-1.42876-1.29852-2.2524-.27544-.7314-.4402-1.48876-.49056-2.27048 0-.0422-.008-.0844-.022-.1266v-.82584c.014-.0364.02-.0744.022-.11252.01-.18692.03-.37384.0544-.55856.12068-.89208.3858-1.7382.79388-2.53996.28136-.55264.62308-1.0668 1.02488-1.54128.398-.47008.8442-.8902 1.33848-1.2578.806-.59888 1.6924-1.03084 2.66104-1.29592.47024-.12844.95076-.21284 1.43696-.25316.08632-.008.17696 0 .26328-.022h.81196c.06224.018.12664.008.18884.014.32176.028.64128.06844.95864.13064.99896.19692 1.92536.57076 2.78172 1.12304.66536.42796 1.2522.94432 1.76464 1.54508.41212.48228.76164 1.00676 1.04712 1.57316.33764.66924.57872 1.37032.71568 2.10768.07224.38976.12664.7836.12848 1.18148 0 .0264.006.0544.008.08032v.47424c-.008.03-.008.0622-.01.09436 0 .07628 0 .15288-.006.22912-.0364.48636-.11256.96648-.23324 1.44064-.23108.8902-.60312 1.71604-1.11964 2.47744-.38396.56668-.832 1.07712-1.34664 1.52908-.51244.45012-1.07336.82992-1.6824 1.13716-.7016.35352-1.43916.59888-2.213.73328-.29736.0522-.59688.08628-.89828.1044-.0794.0092-.16384.0072-.24636.0248z" fill="#4f4f4f"/><path d="m5.2203612 11.999441c.1359858.0038.2886721-.0116.4413175-.04125.4516167-.09039.8351996-.278124 1.1299854-.610967.1792763-.20297.329993-.422932.4599055-.654272.1527275-.272581.280342-.556581.3916254-.8440624.1359858-.3477396.2514546-.7030768.3403333-1.062232.0493638-.2012104-.0061541-.3272664-.2495258-.3965824-.3091888-.0883288-.6206754-.1673012-.9381938-.23134-.5256825-.1053208-1.0555508-.1728776-1.5960054-.1562224-.1526863.005616-.3050442.020584-.4557609.0450252-.4371729.0696528-.8082408.2539088-1.1113154.5452076-.5176809.4963268-.7235879 1.0885432-.5959321 1.7635864.1834617.964584 1.1196859 1.650706 2.1835663 1.643109z" fill="#e9ff61"/><path d="m6.0007508 5.0505808c-.0056.1429122.020516.2991406.063821.4554067.082508.2973195.2192516.5697517.3805012.8270845.367334.5851925.8303436 1.0862009 1.3327052 1.5513576.041142.038242.090118.070527.1425624.095148.052519.026558.1049632.026558.1592352.00381.052444-.022762.099368-.055162.1387576-.097235.1743422-.1752372.3466698-.3507379.5116866-.5318537.2323816-.2573329.4536848-.5220639.6542488-.8060668.1819512-.2572952.3449168-.5279823.4647628-.8214699.1198464-.2917048.1781094-.5925905.1387576-.9089546-.0656116-.5220639-.284826-.9643821-.6766664-1.3112106-.463308-.4094259-1.00297-.5733558-1.6102948-.4820391-.9877888.1488303-1.7038816 1.0331253-1.7000772 2.0259609z" fill="#10b7d6"/><path d="m10.779639 11.999441c-.135986.0038-.288672-.0116-.441318-.04125-.451617-.090383-.8351993-.27812-1.1299851-.610963-.1792763-.20297-.329993-.422932-.4599055-.654272-.1527275-.272585-.2803421-.556585-.3916254-.8440664-.1359858-.3477396-.2514546-.7030768-.3403333-1.062232-.0493638-.2012104.0061541-.3272664.2495258-.3965824.3091888-.0883288.6206754-.1673012.9381938-.23134.5256827-.1053208 1.0555507-.1728776 1.5960057-.1562224.152686.00562.305044.020584.45576.045025.437173.069653.808241.2539088 1.111316.5452076.517681.4963268.723588 1.0885432.595932 1.7635866-.183461.964584-1.119686 1.650706-2.183566 1.643109z" fill="#ff5e5e"/></svg>

<svg xmlns="http://www.w3.org/2000/svg" width="16" height="16" version="1.1" viewBox="0 0 16 16">
 <path style="fill:#4f4f4f" d="M 8.24464,16 7.77032,16 C 7.74832,15.992 7.72624,15.99 7.70404,15.99 7.4508,15.978 7.1994,15.9576 6.9502,15.92372 6.48404,15.8634 6.02568,15.76088 5.57952,15.61836 4.8138,15.37332 4.10032,15.02168 3.43908,14.56344 2.82592,14.13736 2.28348,13.63508 1.81108,13.05652 1.25416,12.37732 0.8202,11.62776 0.51256,10.80412 0.23712,10.07272 0.07236,9.31536 0.022,8.53364 0.022,8.49144 0.014,8.44924 0,8.40704 L 0,7.5812 C 0.014,7.5448 0.02,7.5068 0.022,7.46868 0.032,7.28176 0.052,7.09484 0.0764,6.91012 0.19708,6.01804 0.4622,5.17192 0.87028,4.37016 1.15164,3.81752 1.49336,3.30336 1.89516,2.82888 2.29316,2.3588 2.73936,1.93868 3.23364,1.57108 4.03964,0.9722 4.92604,0.54024 5.89468,0.27516 6.36492,0.14672 6.84544,0.06232 7.33164,0.022 7.41796,0.014 7.5086,0.022 7.59492,0 l 0.81196,0 c 0.06224,0.018 0.12664,0.008 0.18884,0.014 0.32176,0.028 0.64128,0.06844 0.95864,0.13064 0.99896,0.19692 1.92536,0.57076 2.78172,1.12304 0.66536,0.42796 1.2522,0.94432 1.76464,1.54508 0.41212,0.48228 0.76164,1.00676 1.04712,1.57316 0.33764,0.66924 0.57872,1.37032 0.71568,2.10768 0.07224,0.38976 0.12664,0.7836 0.12848,1.18148 0,0.0264 0.006,0.0544 0.008,0.08032 l 0,0.47424 c -0.008,0.03 -0.008,0.0622 -0.01,0.09436 0,0.07628 0,0.15288 -0.006,0.22912 -0.0364,0.48636 -0.11256,0.96648 -0.23324,1.44064 -0.23108,0.8902 -0.60312,1.71604 -1.11964,2.47744 -0.38396,0.56668 -0.832,1.07712 -1.34664,1.52908 -0.51244,0.45012 -1.07336,0.82992 -1.6824,1.13716 -0.7016,0.35352 -1.43916,0.59888 -2.213,0.73328 -0.29736,0.0522 -0.59688,0.08628 -0.89828,0.1044 -0.0794,0.0092 -0.16384,0.0072 -0.24636,0.0248 z"/>
 <path style="fill:#e9ff61" d="m 5.2203612,11.999441 c 0.1359858,0.0038 0.2886721,-0.0116 0.4413175,-0.04125 0.4516167,-0.09039 0.8351996,-0.278124 1.1299854,-0.610967 0.1792763,-0.20297 0.329993,-0.422932 0.4599055,-0.654272 C 7.4042971,10.420371 7.5319116,10.136371 7.643195,9.8488896 7.7791808,9.50115 7.8946496,9.1458128 7.9835283,8.7866576 8.0328921,8.5854472 7.9773742,8.4593912 7.7340025,8.3900752 7.4248137,8.3017464 7.1133271,8.222774 6.7958087,8.1587352 6.2701262,8.0534144 5.7402579,7.9858576 5.1998033,8.0025128 5.047117,8.0081288 4.8947591,8.0230968 4.7440424,8.047538 4.3068695,8.1171908 3.9358016,8.3014468 3.632727,8.5927456 3.1150461,9.0890724 2.9091391,9.6812888 3.0367949,10.356332 c 0.1834617,0.964584 1.1196859,1.650706 2.1835663,1.643109 z"/>
 <path style="fill:#10b7d6" d="m 6.0007508,5.0505808 c -0.0056,0.1429122 0.020516,0.2991406 0.063821,0.4554067 0.082508,0.2973195 0.2192516,0.5697517 0.3805012,0.8270845 0.367334,0.5851925 0.8303436,1.0862009 1.3327052,1.5513576 0.041142,0.038242 0.090118,0.070527 0.1425624,0.095148 0.052519,0.026558 0.1049632,0.026558 0.1592352,0.00381 0.052444,-0.022762 0.099368,-0.055162 0.1387576,-0.097235 C 8.3926756,7.7109154 8.5650032,7.5354147 8.73002,7.3542989 8.9624016,7.096966 9.1837048,6.832235 9.3842688,6.5482321 9.56622,6.2909369 9.7291856,6.0202498 9.8490316,5.7267622 9.968878,5.4350574 10.027141,5.1341717 9.9877892,4.8178076 9.9221776,4.2957437 9.7029632,3.8534255 9.3111228,3.506597 8.8478148,3.0971711 8.3081528,2.9332412 7.700828,3.0245579 6.7130392,3.1733882 5.9969464,4.0576832 6.0007508,5.0505188 Z"/>
 <path style="fill:#ff5e5e" d="m 10.779639,11.999441 c -0.135986,0.0038 -0.288672,-0.0116 -0.441318,-0.04125 C 9.886704,11.867808 9.5031217,11.680071 9.2083359,11.347228 9.0290596,11.144258 8.8783429,10.924296 8.7484304,10.692956 8.5957029,10.420371 8.4680883,10.136371 8.356805,9.8488896 8.2208192,9.50115 8.1053504,9.1458128 8.0164717,8.7866576 7.9671079,8.5854472 8.0226258,8.4593912 8.2659975,8.3900752 8.5751863,8.3017464 8.8866729,8.222774 9.2041913,8.1587352 9.729874,8.0534144 10.259742,7.9858576 10.800197,8.0025128 c 0.152686,0.00562 0.305044,0.020584 0.45576,0.045025 0.437173,0.069653 0.808241,0.2539088 1.111316,0.5452076 0.517681,0.4963268 0.723588,1.0885432 0.595932,1.7635866 -0.183461,0.964584 -1.119686,1.650706 -2.183566,1.643109 z"/>
</svg>
